assets/icons/24px/stroke/triangle-right-24px.svg

<svg width="24" height="24" viewBox="0 0 24 24" fill="none" xmlns="http://www.w3.org/2000/svg">
<path d="M18.3531 10.2517L6.47133 3.65074C5.14764 2.91536 4.48579 2.54766 3.99292 2.83767C3.50004 3.12768 3.50004 3.8848 3.50004 5.39906V18.601C3.50004 20.1152 3.50004 20.8724 3.99292 21.1624C4.48579 21.4524 5.14764 21.0847 6.47133 20.3493L18.3531 13.7483C19.745 12.9751 20.4409 12.5884 20.4409 12C20.4409 11.4116 19.745 11.025 18.3531 10.2517Z" fill="white"/>
</svg>

<svg width="24" height="24" fill="none" xmlns="http://www.w3.org/2000/svg"><path d="M18.353 10.252L6.471 3.65c-1.323-.736-1.985-1.103-2.478-.813-.493.29-.493 1.047-.493 2.561v13.202c0 1.514 0 2.271.493 2.561.493.29 1.155-.077 2.478-.813l11.882-6.6c1.392-.774 2.088-1.16 2.088-1.749 0-.588-.696-.975-2.088-1.748z" fill="#fff"/></svg>
